X: 1078
T: The Granadeers March.
%R: march
B: Henry Playford "Apollo's Banquet", London 1687 (5th Edition)
F: https://archive.org/details/apollosbanquetco01rugg
Z: 2017 John Chambers <jc:trillian.mit.edu>
M: C|
L: 1/8
K: C
% - - - - - - - - - -
|:\
c4 cdef | g2g2 g2f2 | e2ef gfed | c2G2 c2d2 |\
e2g2 efga | g2G2 cBcd | edcB A3G | G8 :|
|:\
d6 d>d | d2B2 c2d2 | G2gf edcB | A2fe dcBA |\
G4 A4 | B3A/B/ c3B/c/ | d6 e2 | f2A2 B3c | c8 |]
% - - - - - - - - - -

%%sep 1 1 500
%%sep 1 1 500

